X:42
T:Maltese Dance
O:No 42 Wm Clarke of Feltwell   MS 1858
N:Bottom of page
I:abc2nwc
M:6/8
L:1/8
K:D
f2d {e}dcd|f2d {e}dcd|e2e a2a|f3d3|f2d {e}dcd|f2d {e}dcd|e2e a2a|d3d3:|
|:e2e a2a|f2f d2d|e^de a^ga|f2f d3|b2g {g}fef|a2f {g}fef|e2e a2a|d3d3|]

